X: 6496
T: Cat On The Mushrooms
R: reel
M: 4/4
K: Gmajor
B2AF d2 B2|AG (3FED E2 GE|DBAG ABcA|DEGD EGAc|
B2AF d2 B2|AG (3FED E2 GE|DBAG ABcA|DEGA G4:|
|:A6 GA|B2 AG E2 GE|DBAG DEDE|DEGD EGAc|
A6 GA|B2 AG E2 GE|DBAG DEDE|DEGD G4:|

